X:1
T:Marching Up the Narrow Way
T:Marching Up the Narrow Way
T:Charles Hutchinson Gabriel
T:Madge Harrington, 1901
T:Public Domain Courtesy of the Cyber Hymnal™
T:Public Domain Courtesy of the Cyber Hymnal™
C:Charles Hutchinson Gabriel
Z:Public Domain
Z:Courtesy of the Cyber Hymnal™
%%score ( 1 2 ) ( 3 4 )
L:1/8
Q:1/4=100
M:6/8
K:G
V:1 treble 
V:2 treble 
V:3 bass 
V:4 bass 
V:1
 [B,D]2 [B,D] [CE]2 [DF] | [DG]2 [DF] [DG]3 | [CE]2 [CE] [DF]2 [DG] | [EA]2 [E^G] [EA]3 | %4
w: 1.~March- ing up the|nar- row way,|March- ing up the|King’s high- way,|
w: 2.~Ev- ery day on|ev- ery side|Sub- tle en- e-|mies a- bide,|
 [DF]2 [DG] [DA]2 [DB] | [Fc]2 [FB] [Fc]2 [Fd] | [Ff]2 [Fe] [Gd]2 [Dc] | [DB]2 [Dc] [Gd]3 | %8
w: With our foot- steps|in the right, We’ll|take the world by|faith and might.|
w: But with sword and|shield of truth, We’ll|sure- ly tri- umph|in our youth.|
 [B,D]2 [B,D] [CE]2 [DF] | [DG]2 [DF] [DG]3 | [CE]2 [CE] [DF]2 [DG] | [EA]2 [E^G] [EA]3 | %12
w: Christ, our cap- tain,|leads the host,|He is ev- er|at His post.|
w: When our war- fare|here is done,|And our crown of|vic- tory won,|
 [DF]2 [DG] [DA]2 [DB] | [Fc]2 [Fd] [Ff]2 [Fe] | [Fd]2 [Gc] [GB]2 [DA] | [DG]3- [DG]2 z || %16
w: And with cour- age|true and strong We’ll|con- quer ev- ery|wrong. *|
w: We shall lay our|arms a- side And|with our king a-|bide. *|
"^Refrain" d3 B3 | G3 GFG | F3 c3 | c6 | c3 A3 | F3 EFE | [B,D]2 [B,D] G2 A | B3- [DB]2 z | d3 B3 | %25
w: March, march,|march, stead- i- ly|march, march|on,|March, march,|march, un- til the|vic- to- ry is|won; March,|* march,|
w: |||||||||
 G3 AAB | c3 A3 | E3 EFG | F3 e3 | d3- [Gd]2 [Gc] | [GB]2 z [DA]2 z | [DG]3- [DG]2 z |] %32
w: march, led by the|Gos- pel|light, Strong in His|strength of|might, March on,|* march|on. *|
w: |||||||
V:2
 x6 | x6 | x6 | x6 | x6 | x6 | x6 | x6 | x6 | x6 | x6 | x6 | x6 | x6 | x6 | x6 || (G2 G) (G2 G) | %17
 (D2 D) D3 | (D2 D) (D2 E) | (F2 E D2 G) | (F2 G) (A2 D) | (D2 D) C3 | x3 D3 | D2 D x3 | %24
 (G2 G) (G2 G) | (D2 D) =F3 | (E2 E) (E2 E) | (C2 C) E3 | (D2 D) (D2 F) | G2 F x3 | x6 | x6 |] %32
V:3
 [G,,G,]2 [G,,G,] [G,,G,]2 [G,,C] | [G,,B,]2 [G,,A,] [G,,B,]3 | [C,G,]2 [C,G,] [C,A,]2 [G,,G,] | %3
w: ~ ~ ~ ~|~ ~ ~|~ ~ ~ ~|
 [A,,C]2 [A,,D] [A,,C]3 | [D,C]2 [D,B,] [D,F,]2 [D,G,] | [D,A,]2 [D,^G,] [D,A,]2 [D,A,] | %6
w: ~ ~ ~|~ ~ ~ ~|~ ~ ~ ~|
 [D,A,]2 [D,C] [D,B,]2 [D,A,] | G,2 [G,A,] [G,B,]3 | [G,,G,]2 [G,,G,] [G,,G,]2 [G,,C] | %9
w: ~ ~ ~ ~|~ ~ ~|~ ~ ~ ~|
 [G,,B,]2 [G,,A,] [G,,B,]3 | [C,G,]2 [C,G,] [C,A,]2 [B,,G,] | [A,,C]2 [A,,D] [A,,C]3 | %12
w: ~ ~ ~|~ ~ ~ ~|~ ~ ~|
 [D,C]2 [D,B,] [D,F,]2 [D,G,] | [D,A,]2 [D,A,] [D,A,]2 [D,C] | [D,B,]2 [D,E] [D,D]2 [D,C] | %15
w: ~ ~ ~ ~|~ ~ ~ ~|~ ~ ~ ~|
 [G,,B,]3- [G,,B,]2 z || [G,B,]2 [G,B,] [G,D]2 [G,D] | [G,B,]2 [G,B,] [G,B,]3 | %18
w: ~ *|March- ing, we are|march- ing on;|
 [D,A,]2 [E,A,] [F,A,]2 [G,A,] | [A,D]2 [G,A,] [F,A,]2 [E,A,] | [D,A,]2 [E,A,] [F,A,]2 [E,A,] | %21
w: Loy- al to the|King of kings, We’re|march- ing, we are|
 [D,C]2 [D,C] [D,F,]3 | [G,,G,]2 [G,,G,] ([B,,G,]2 [D,F,]) | G,2 G, G,2 z | %24
w: march- ing on,|vic- to- ry! *|vic- to- ry!|
 [G,B,]2 [G,B,] [G,D]2 [G,D] | [G,B,]2 [G,B,] (B,2 G,) | [C,G,]2 [C,G,] [C,G,]2 [C,G,] | %27
w: March- ing, we are|march- ing on, *|Led by truth and|
 [C,G,]2 [C,G,] [^C,A,]3 | [D,A,]2 [E,A,] [F,C]2 [D,C] | [G,,B,]2 [A,,C] [B,,D]2 [C,E] | %30
w: Gos- pel light,|Strong in faith and|in His might, *|
 [D,D]2 z [D,C]2 z | [G,,B,]3- [G,,B,]2 z |] %32
w: ||
V:4
 x6 | x6 | x6 | x6 | x6 | x6 | x6 | G,2 x4 | x6 | x6 | x6 | x6 | x6 | x6 | x6 | x6 || x6 | x6 | %18
 x6 | x6 | x6 | x6 | x6 | G,2 G, G,2 x | x6 | x3 G,3 | x6 | x6 | x6 | x6 | x6 | x6 |] %32

